packages/icons/svg/Fill/thermometer.svg

<svg fill="none" height="24" viewBox="0 0 24 24" width="24" xmlns="http://www.w3.org/2000/svg"><path clip-rule="evenodd" d="m13 9.54007v-4.54c0-.267-.103-.513-.287-.694-.199-.204-.446-.306-.713-.306-.552 0-1 .449-1 1v4.54zm-1 12.45993c-2.75702 0-5.00002-2.243-5.00002-5 0-1.58.754-3.063 2-3.997v-8.003c0-1.654 1.34602-3 3.00002-3 .812 0 1.566.317 2.127.892.557.542.873 1.297.873 2.108v8.003c1.246.934 2 2.417 2 3.997 0 2.757-2.243 5-5 5z" fill="#6b7280" fill-rule="evenodd"/></svg>

<svg width="24" height="24" viewBox="0 0 24 24" fill="none" xmlns="http://www.w3.org/2000/svg">
<g id="Icon/Fill/thermometer">
<path id="Mask" fill-rule="evenodd" clip-rule="evenodd" d="M13 9.54V5C13 4.733 12.897 4.487 12.713 4.306C12.514 4.102 12.267 4 12 4C11.448 4 11 4.449 11 5V9.54H13ZM12 22C9.243 22 7 19.757 7 17C7 15.42 7.754 13.937 9 13.003V5C9 3.346 10.346 2 12 2C12.812 2 13.566 2.317 14.127 2.892C14.684 3.434 15 4.189 15 5V13.003C16.246 13.937 17 15.42 17 17C17 19.757 14.757 22 12 22Z" fill="#000000"/>
</g>
</svg>
